client/public/assets/svg/door-open.svg

<svg xmlns="http://www.w3.org/2000/svg" viewBox="0 0 576 512" fill="#303030"><!--!Font Awesome Free 6.6.0 by @fontawesome - https://fontawesome.com License - https://fontawesome.com/license/free Copyright 2024 Fonticons, Inc.--><path d="M320 32c0-9.9-4.5-19.2-12.3-25.2S289.8-1.4 280.2 1l-179.9 45C79 51.3 64 70.5 64 92.5L64 448l-32 0c-17.7 0-32 14.3-32 32s14.3 32 32 32l64 0 192 0 32 0 0-32 0-448zM256 256c0 17.7-10.7 32-24 32s-24-14.3-24-32s10.7-32 24-32s24 14.3 24 32zm96-128l96 0 0 352c0 17.7 14.3 32 32 32l64 0c17.7 0 32-14.3 32-32s-14.3-32-32-32l-32 0 0-320c0-35.3-28.7-64-64-64l-96 0 0 64z"/></svg>

<svg width="576" height="512" viewBox="0 0 576 512" fill="none" xmlns="http://www.w3.org/2000/svg">
<path d="M320 32C320 22.1 315.5 12.8 307.7 6.80001C299.9 0.800013 289.8 -1.39999 280.2 1.00001L100.3 46C79.0001 51.3 64 70.5 64 92.5V448C64 458.5 64 462.3 64 480C64 497.7 64 502 64 512H96.0001H288H320V480V32ZM256 256C256 273.7 245.3 288 232 288C218.7 288 208 273.7 208 256C208 238.3 218.7 224 232 224C245.3 224 256 238.3 256 256ZM352 128H448V480C448 497.7 448 512 448 512H512C512 512 512 497.7 512 480C512 462.3 512 448 512 448V128C512 92.7 483.3 64 448 64H352V128Z" fill="#303030"/>
</svg>
